X:1
T:Title
%%score { ( 1 3 ) | 2 }
L:1/8
M:4/4
K:Ab
V:1 treble nm="Grand Piano"
V:3 treble 
V:2 bass 
V:1
 z4 z2[Q:1/4=100] [Ec]>[DB] | [CA]2 [Ec]2 [CE]2 [CE]>[CE] | [DF]2 [FA]2 [FA]2 [FA]>[FA] | %3
 G2 B2 F2 G2 |[M:3/4] [CE]6 |[M:1/4] [Ec]>[DB] |[M:4/4] [CA]2 [Ec]2 [CE]2 [CE]>[CE] | %7
 [DF]2 [FA]2 [FA]2 [=EA]>[EB] | c2 Ac c2 B2 |[M:3/4] [CA]6 |[M:1/4] [A,C]>[B,D] |[M:4/4] E4 A2 z2 | %12
 [FB]4 [DF]2 [DF][FA] | GGGA B2 FG | [CF][CE][CE][_C=D] [=CE]2 [A,C]>[B,_D] | %15
 C2 C2 [CA]2 [Ec]>[Ec] |[M:9/8] [FB]2 [=Ec]- [Ec] [Fd]2- [Fd]F>F |[M:4/4] E2 Ac c2 B2 | %18
[M:3/4] [CA]6 |] %19
V:2
 z4 z2 [A,,A,]>[A,,A,] | [A,,A,]2 [A,,A,]2 [A,,A,]2 [A,,A,]>[A,,A,] | %2
 [D,A,]2 [D,D]2 [D,D]2 [D,D]>[D,D] | [E,B,D]2 [E,G,D]2 [E,B,D]2 [E,B,D]2 |[M:3/4] [A,,A,]6 | %5
[M:1/4] [A,,A,]>[A,,A,] |[M:4/4] [A,,A,]2 [A,,A,]2 [A,,A,]2 [A,,A,]>[A,,A,] | %7
 [D,A,]2 [D,D]2 [D,D]2 [D,D]>[D,D] | [E,A,E]2 [E,A,C][E,A,E] [E,G,E]2 [E,G,D]2 |[M:3/4] [A,,A,]6 | %10
[M:1/4] [A,,E,]>[A,,E,] |[M:4/4] [A,,A,]2 [A,,A,]2 [A,,A,][A,,A,] [A,,A,]>[A,,A,] | %12
 [D,A,]4 [D,A,]2 [D,A,][D,D] | [E,B,D][E,B,D][E,B,D][E,A,C] [E,G,D]2 [E,B,D][E,B,D] | %14
 [A,,A,][A,,A,][A,,A,][A,,A,] [A,,A,]2 [A,,E,]>[A,,E,] | %15
 [A,,A,]2 [A,,A,]2 [A,,A,]2 [A,,A,]>[A,,A,] | %16
[M:9/8] [D,B,]2 [C,G,]- [C,G,] [B,,B,]2- [B,,B,][D,A,D]>[D,A,D] | %17
[M:4/4] [E,A,C]2 [E,A,C][E,A,E] [E,G,E]2 [E,G,D]2 |[M:3/4] [A,,A,]6 |] %19
V:3
 x8 | x8 | x8 | x8 |[M:3/4] x6 |[M:1/4] x2 |[M:4/4] x8 | x8 | x8 |[M:3/4] x6 |[M:1/4] x2 | %11
[M:4/4] C2 C2 CC [Ec]>[Ec] | x8 | x8 | x8 | E4 z4 |[M:9/8] x9 |[M:4/4] x8 |[M:3/4] x6 |] %19

